dist/img/socials/tg.svg

<svg width="38" height="34" viewBox="0 0 38 34" fill="none" xmlns="http://www.w3.org/2000/svg">
<path d="M38 1.20445L31.9892 32.5845C31.9892 32.5845 31.1481 34.7602 28.8378 33.7168L14.9692 22.7052L14.9048 22.6727C16.7782 20.9308 31.3048 7.40533 31.9397 6.79224C32.9225 5.84273 32.3124 5.27746 31.1712 5.99472L9.71358 20.1059L1.43528 17.2215C1.43528 17.2215 0.132515 16.7417 0.00718568 15.6982C-0.119792 14.6531 1.47815 14.0878 1.47815 14.0878L35.2263 0.377895C35.2263 0.377895 38 -0.88414 38 1.20445Z" fill="#383838"/>
</svg>

<svg xmlns="http://www.w3.org/2000/svg" width="38" height="34" fill="none"><path fill="#383838" d="m38 1.204-6.01 31.38s-.842 2.176-3.152 1.133L14.969 22.705l-.064-.032c1.873-1.742 16.4-15.268 17.035-15.88.982-.95.372-1.516-.769-.798L9.714 20.105l-8.279-2.884s-1.302-.48-1.428-1.523c-.127-1.045 1.471-1.61 1.471-1.61L35.226.378S38-.884 38 1.204Z"/></svg>
